X:6
T:The Clontarf Lass
M:6/8
R:Jig
S:phelan-1/33
L:1/8
K:D
FAd fed | cBc    ecA | FAd fed | cde ggg  |
FAd fed | cBc    ecA | dAF GBd | Ace d3  :|
faf ggg | faf    eee | dfa afa | bge efg  |
faf ggg | (3fgaf eee | dAF GBd | Ace d3  :|

